packages/fxa-settings/src/components/ButtonIcon/trash-icon.svg

<svg fill="none" viewBox="0 0 11 14" xmlns="http://www.w3.org/2000/svg"><g clip-rule="evenodd" fill-rule="evenodd"><path d="m3.65625 9.75201c.22437 0 .40625-.18188.40625-.40625v-4.875c0-.22436-.18188-.40625-.40625-.40625s-.40625.18189-.40625.40625v4.875c0 .22437.18188.40625.40625.40625zm1.625 0c.22437 0 .40625-.18188.40625-.40625v-4.875c0-.22436-.18188-.40625-.40625-.40625s-.40625.18189-.40625.40625v4.875c0 .22437.18188.40625.40625.40625zm2.03125-.40625c0 .22437-.18188.40625-.40625.40625s-.40625-.18188-.40625-.40625v-4.875c0-.22436.18188-.40625.40625-.40625s.40625.18189.40625.40625z"/><path d="m9.75 1.62704h-2.47813c-.19223-.946698-1.02461-1.62704-1.99062-1.62704s-1.79839.680342-1.99062 1.62704h-2.47813c-.448731 0-.8125.36376-.8125.8125 0 .44873.363769.8125.8125.8125v7.31246c0 1.3462 1.09131 2.4375 2.4375 2.4375h4.0625c1.34619 0 2.4375-1.0913 2.4375-2.4375v-7.31246c.4487 0 .8125-.36377.8125-.8125 0-.44874-.3638-.8125-.8125-.8125zm-4.46873-.812504c.51041.005294.96258.330364 1.13019.812504h-2.26038c.16761-.48214.61978-.80721 1.13019-.812504zm2.03123 10.562464c.44873 0 .8125-.3637.8125-.8125v-7.31246h-5.6875v7.31246c0 .4488.36377.8125.8125.8125z"/></g></svg>

<svg fill="none" viewBox="0 0 11 14" xmlns="http://www.w3.org/2000/svg"><g clip-rule="evenodd" fill-rule="evenodd"><path d="M3.656 9.752a.406.406 0 00.406-.406V4.47a.406.406 0 00-.812 0v4.875c0 .224.182.406.406.406zm1.625 0a.406.406 0 00.407-.406V4.47a.406.406 0 00-.813 0v4.875c0 .224.182.406.406.406zm2.032-.406a.406.406 0 11-.813 0V4.47a.406.406 0 01.813 0z"/><path d="M9.75 1.627H7.272a2.031 2.031 0 00-3.981 0H.813a.812.812 0 100 1.625v7.313a2.437 2.437 0 002.437 2.437h4.063a2.437 2.437 0 002.437-2.438V3.252a.813.813 0 000-1.625zM5.281.815c.51.005.963.33 1.13.812h-2.26a1.21 1.21 0 011.13-.812zm2.032 10.562a.812.812 0 00.812-.813V3.253H2.437v7.313c0 .448.364.812.813.812z"/></g></svg>
